src/lib/images/logo/bsc.svg

<svg fill="none" height="256" viewBox="0 0 256 256" width="256" xmlns="http://www.w3.org/2000/svg"><path clip-rule="evenodd" d="m128 0c70.697 0 128 57.3026 128 128 0 70.697-57.303 128-128 128-70.6974 0-128-57.303-128-128 0-70.6974 57.3026-128 128-128z" fill="#f0b90b" fill-rule="evenodd"/><g fill="#fff"><path d="m70.3483 128 .0923 33.846 28.759 16.923v19.816l-45.5897-26.739v-53.744zm0-33.8462v19.7232l-16.7487-9.908v-19.7229l16.7487-9.9077 16.8308 9.9077zm40.8617-9.9077 16.749-9.9077 16.83 9.9077-16.83 9.9077z"/><path d="m82.4512 154.831v-19.816l16.7487 9.908v19.723zm28.7588 31.036 16.749 9.907 16.831-9.907v19.723l-16.831 9.907-16.749-9.907zm57.6-101.6209 16.749-9.9077 16.831 9.9077v19.7229l-16.831 9.908v-19.7232zm16.749 77.5999.092-33.846 16.749-9.908v53.744l-45.59 26.738v-19.815z"/><path d="m173.549 154.831-16.748 9.815v-19.723l16.748-9.908z"/><path d="m173.549 101.169.092 19.815-28.841 16.924v33.928l-16.749 9.815-16.749-9.815v-33.928l-28.8406-16.924v-19.815l16.8205-9.9076 28.6671 17.0056 28.841-17.0056 16.83 9.9076zm-91.0978-33.8358 45.5078-26.8308 45.59 26.8308-16.749 9.9077-28.841-17.0051-28.7591 17.0051z"/></g></svg>

<svg width="256" height="256" viewBox="0 0 256 256" fill="none" xmlns="http://www.w3.org/2000/svg">
<path fill-rule="evenodd" clip-rule="evenodd" d="M128 0C198.697 0 256 57.3026 256 128C256 198.697 198.697 256 128 256C57.3026 256 0 198.697 0 128C0 57.3026 57.3026 0 128 0Z" fill="#F0B90B"/>
<path d="M70.3483 128L70.4406 161.846L99.1996 178.769V198.585L53.6099 171.846V118.102L70.3483 128ZM70.3483 94.1538V113.877L53.5996 103.969V84.2461L70.3483 74.3384L87.1791 84.2461L70.3483 94.1538ZM111.21 84.2461L127.959 74.3384L144.789 84.2461L127.959 94.1538L111.21 84.2461Z" fill="white"/>
<path d="M82.4512 154.831V135.015L99.1999 144.923V164.646L82.4512 154.831ZM111.21 185.867L127.959 195.774L144.79 185.867V205.59L127.959 215.497L111.21 205.59V185.867ZM168.81 84.2461L185.559 74.3384L202.39 84.2461V103.969L185.559 113.877V94.1538L168.81 84.2461ZM185.559 161.846L185.651 128L202.4 118.092V171.836L156.81 198.574V178.759L185.559 161.846Z" fill="white"/>
<path d="M173.549 154.831L156.801 164.646V144.923L173.549 135.015V154.831Z" fill="white"/>
<path d="M173.549 101.169L173.641 120.984L144.8 137.908V171.836L128.051 181.651L111.302 171.836V137.908L82.4614 120.984V101.169L99.2819 91.2614L127.949 108.267L156.79 91.2614L173.62 101.169H173.549ZM82.4512 67.3332L127.959 40.5024L173.549 67.3332L156.8 77.2409L127.959 60.2358L99.1999 77.2409L82.4512 67.3332Z" fill="white"/>
</svg>
